X:1
T:O Morning Star
T:Philipp Nicolai, 1599; harmony by Bach
T:O Morning Star
T:Public Domain
T:Public Domain
C:Philipp Nicolai, 1599; harmony by Bach
Z:Public Domain
%%score ( 1 2 ) ( 3 4 )
L:1/8
M:4/4
K:D
V:1 treble 
V:2 treble 
V:3 bass 
V:4 bass 
V:1
 [A,D]2 | [A,A]2 [A,F]2 [B,D]2 [CA]2 | [FB]2 [EB]2 [EA]2 [FA]2 | [GB]2 [Gc]2 [Fd]2 EA | %4
 B2 [^GB]2 [EA]2 [DF]2 | [DB]2 [DA]2 DC [DF]2 | D2 C2 [A,D]2 [A,D]2 | [A,A]2 [A,F]2 [B,D]2 [CA]2 | %8
 [FB]2 [EB]2 [EA]2 [FA]2 | [GB]2 [Gc]2 [Fd]2 EA | B2 [^GB]2 [EA]2 [DF]2 | [DB]2 [DA]2 DC [DF]2 | %12
 D2 C2 [A,D]4 | [EA]4 [DF]4 | [EA]4 [DF]4 | [DF]2 [DF]2 [CE]2 [CE]2 | [DF]2 [DF]2 [CE]2 [^DF]2 | %17
 [EG]2 DC B,2 C2 [A,D]4 [Fd]2 FE | DE [FA]2 FEED | D2 C2 [A,D]4 |] %20
V:2
 x2 | x8 | x8 | x6 c2 | A2 x6 | x4 G2 x2 | E4 x4 | x8 | x8 | x6 c2 | A2 x6 | x4 G2 x2 | E4 x4 | %13
 x8 | x8 | x8 | x8 | x2 F2 E4 x4 c2 x2 | B2 x G2 F2 x | E4 x4 |] %20
V:3
 [D,F,]2 | [C,E,]2 D,2 F,^G,F,E, | [D,A,]2 [E,^G,]2 [A,,C]2 [D,D]2 | %3
 [G,D]2 F,E, [F,A,][^G,B,] [A,C]2 | F,FED [A,,C]2 [D,A,]2 | G,2 [F,A,]2 B,G, [D,A,]2 | %6
 A,3 G, [D,F,]2 [D,F,]2 | [C,E,]2 D,E, F,^G,F,E, | [D,A,]2 [E,^G,]2 [A,,C]2 [D,D]2 | %9
 [G,C]2 F,E, [F,A,][^G,B,] [A,C]2 | F,FED [A,,C]2 [D,A,]2 | G,2 [F,A,]2 B,G, [D,A,]2 | %12
 A,3 G, [D,F,]4 | [C,A,]4 [D,A,]4 | [A,,C]4 [D,A,]4 | D,E,F,G, A,B,A,G, | F,E,F,D, A,,A,G,F, | %17
 B,CB,A, [G,D]2 A,G, [D,F,]4 F,^G, [F,,^A,]2 | [G,,B,]2 [A,,C]2 [B,,D][C,E] [D,A,]2 | %19
 [G,,B,]2 A,G, [D,F,]4 |] %20
V:4
 x2 | x4 B,,2 A,2 | x8 | x2 E2 x4 | D,2 E,2 x4 | x4 E,2 x2 | A,,4 x4 | x4 B,,2 A,2 | x8 | %9
 x2 E2 x4 | D,2 E,2 x4 | x4 E,2 x2 | A,,4 x4 | x8 | x8 | A,2 A,2 x4 | A,2 A,2 A,2 A,2 | %17
 E,2 D2 x7 B,,2 x3 | x8 | x2 A,,2 x4 |] %20

